svgs/solid/poll-people.svg

<svg xmlns="http://www.w3.org/2000/svg" viewBox="0 0 640 512"><path d="M80 96c26.5 0 48-21.5 48-48S106.5 0 80 0 32 21.5 32 48s21.5 48 48 48zm48 240c0-26.5-21.5-48-48-48s-48 21.5-48 48 21.5 48 48 48 48-21.5 48-48zm-32 80H64c-35.3 0-64 28.7-64 64v16c0 8.8 7.2 16 16 16h128c8.8 0 16-7.2 16-16v-16c0-35.3-28.7-64-64-64zM616 32H248c-13.3 0-24 10.7-24 24v112c0 13.3 10.7 24 24 24h368c13.3 0 24-10.7 24-24V56c0-13.3-10.7-24-24-24zm-40 96h-64V96h64v32zm-480 0H64c-35.3 0-64 28.7-64 64v16c0 8.8 7.2 16 16 16h128c8.8 0 16-7.2 16-16v-16c0-35.3-28.7-64-64-64zm520 192H248c-13.3 0-24 10.7-24 24v112c0 13.3 10.7 24 24 24h368c13.3 0 24-10.7 24-24V344c0-13.3-10.7-24-24-24zm-40 96H352v-32h224v32z"/></svg>

<svg xmlns="http://www.w3.org/2000/svg" viewBox="0 0 640 512"><!--! Font Awesome Pro 6.0.0-alpha3 by @fontawesome - https://fontawesome.com License - https://fontawesome.com/license (Commercial License) --><path d="M80 96C106.5 96 128 74.5 128 48S106.5 0 80 0S32 21.5 32 48S53.5 96 80 96zM128 336C128 309.5 106.5 288 80 288S32 309.5 32 336S53.5 384 80 384S128 362.5 128 336zM96 416H64c-35.25 0-64 28.75-64 64v16C0 504.8 7.25 512 16 512h128C152.8 512 160 504.8 160 496V480C160 444.8 131.2 416 96 416zM616 32H248C234.8 32 224 42.75 224 56v112C224 181.2 234.8 192 248 192h368C629.3 192 640 181.2 640 168v-112C640 42.75 629.3 32 616 32zM576 128h-64V96h64V128zM96 128H64C28.75 128 0 156.8 0 192v16C0 216.8 7.25 224 16 224h128C152.8 224 160 216.8 160 208V192C160 156.8 131.2 128 96 128zM616 320H248C234.8 320 224 330.8 224 344v112C224 469.2 234.8 480 248 480h368c13.25 0 24-10.75 24-24v-112C640 330.8 629.3 320 616 320zM576 416h-224v-32h224V416z"/></svg>
